X:411
T:Bourree Tournante des Grandes Poteries
Z:Jack Campin, http://www.campin.me.uk/
F:Jack Campin's Nine-Note Tunebook
% last edit 03-02-2013
S:Cam-French Tune Book
M:3/8
L:1/8
Q:3/8=66
K:F
A/B/|cAc|c/A/FA/B/|cAc|c2 G/A/|BGG|G2 F/G/|   AFF|[1 F2 :|\
                                                  [2 FED||
     C2D|C2D      |EFG|A3     |GFG|FED    |[1 CDC|   A2F:|\
                                           [2 CAG|   F2 |]

